X: 54
T:The Cat Walk
% Nottingham Music Database
S:Fiona Maurice-Smith, via PR
M:4/4
L:1/4
K:D
"D"D/2E/2F/2A/2 BA/2B/2|dc/2d/2 B/2A/2F/2E/2|"D"DD/2E/2 F/2A/2B/2A/2|\
"A7"c3/2B/2 A/2F/2E/2F/2|
"D"D3/2E/2 F/2A/2B/2A/2|"D"d3/2B/2 A/2F/2E/2D/2|"C"=C/2D/2E/2C/2 A/2G/2E/2C/2|\
"D"=C/2DC/2 D2::
"D"d2 "A7"e2|"D"f/2e/2d/2B/2 A2|"D"f3/2g/2 f/2d/2A/2B/2|\
"C"=c/2B/2c/2d/2 e/2d/2c|"D"d2 "C"e2|
"D"f/2a/2b/2a/2 f/2e/2d/2e/2|"D"f/2d/2A/2B/2 "C"=c/2G/2E/2G/2|\
"A7"A/2F/2E/2C/2 "D"D2:|


